X:160
T:score240
L:1/8
Q:1/4=96
M:6/8
I:linebreak $
K:Ab
 z2!p! (c f2) z | z2 (c g2) z | z2 (c a2) (c | c'2) z z2 z |$ z2 (B!<(! f2)!<)! z | z2 (=B g2) z | %6
 =e6- | e2 z z2"_cantabile" c | (c3- c2 d) |$ (c3- c2 B) | (B3 c2 G) | (B3 A2) z |] %12
